X:2
T:All the way to Galway
T:An bothar ar fad go Gaillimh
O:Ireland - ire
B:O'Neill's
Z:copie (livre) : <anamnese@laposte.net>
N:O'Neill's 1001 gems n999
N:(Miscellaneous)
M:4/4
L:1/8
Q:1/4=150
K:G
%tempo donn  titre d'exemple
A | d>ef(d cA)A>c | BGG(A/B/) cAA>c | d>ef(d cA)A>c | BG(AF) D2 D :|
G | A>BAG A(BcA) | G>(AGF) EFGE | A>BA(G ABc)d | c(AGE) D2 (DB) |
 A>BAG AB(cdA) | G>(AGF) EFGE | A>BAG AddB | c(AGE) D2 D |]
